X:1
T:Title
%%score { ( 1 3 ) | ( 2 4 ) }
L:1/8
M:9/8
K:Ab
V:1 treble nm="Grand Piano"
V:3 treble 
V:2 bass 
V:4 bass 
V:1
 z3 z3[Q:1/4=100] [CE][DF][DG] | [CA]3 [CA]3 [CE][CA][DB] | [Ec]3 [Ec]3 EAc | e3 c3 cBA | B6 z3 | %5
 [CA]3 [CA]3 [CE][CA][DB] | [Ec]3 [Ec]3 cBc | [Fe]3 [Fd]3 cAB |[M:3/4] [A,CA]6 |[M:3/8] AGA | %10
[M:9/8] B3 z3 z3 | A,A,A, [Ec]3 c_c=c | e3 e3 z3 | [Ge]3 [Ed]3 [Ec][DB][CA] | [Ec]3 [Ec]3 BAF | %15
 [FA]3 [FA]3 [FB][FA]F |[M:19/16] E/-E/-E-<Ec-<ccBc3/2B |[M:3/4] [CA]6 |] %18
V:2
 z3 z3 [A,,A,][A,,A,][A,,A,] | [A,,E,]3 [A,,E,]3 [A,,A,][A,,A,][A,,A,] | %2
 [A,,A,]3 [A,,A,]3 [A,C][A,C][A,E] | [A,CE]3 [A,E]3 [A,E][G,B,E][F,B,=D] | E3 z3 z3 | %5
 [A,,E,]3 [A,,E,]3 [A,,A,][A,,A,][A,,A,] | [A,,A,]3 [A,,A,]3[K:treble] [A,E][G,B,E][A,_G] | %7
 [D,A,]3 [D,A,]3 [E,A,E][E,A,C][E,G,D] |[M:3/4] A,,6 |[M:3/8] CB,C |[M:9/8] D3 z3 z3 | %11
 A,,A,,A,, [A,,A,]3[K:treble] E=DE | E-[A,E-][A,E] E2- [A,E] [B,F][B,F][K:bass][B,,B,] | %13
 [E,B,]3 [E,G,]3 [A,,A,][A,,A,][A,,A,] | [A,,A,]3 [A,,A,]3 [D,F,D][D,F,D][D,A,D] | %15
 [D,D]3 [D,D]3 [D,D][D,D][D,A,D] | %16
[M:19/16] [E,A,C]/-[E,A,C]/-[E,A,C]-<[E,A,C][E,A,E]-<[E,A,E][E,A,E][E,G,D][E,A,E]3/2[E,G,D] | %17
[M:3/4] [A,,A,]6 |] %18
V:3
 x9 | x9 | x9 | x9 | z3 D3 [CE][DF][DG] | x9 | x9 | x9 |[M:3/4] x6 |[M:3/8] x3 | %10
[M:9/8] z G,G, [Fd]3 FGF | [CE]3 z3 z3 | z CC z2 C =dc[Ad] | x9 | x9 | x9 |[M:19/16] x19/2 | %17
[M:3/4] x6 |] %18
V:4
 x9 | x9 | x9 | x9 | [E,G,]6 [A,,A,][A,,A,][A,,A,] | x9 | x6[K:treble] x3 | x9 |[M:3/4] x6 | %9
[M:3/8] x3 |[M:9/8] [E,G,]E,E, [E,G,]3 DED | x6[K:treble] x3 | .[A,C]3 .[A,C]3 z3[K:bass] | x9 | %14
 x9 | x9 |[M:19/16] x19/2 |[M:3/4] x6 |] %18

